X:12
T:HIDDEN VALLEY/ Cameron's Got His Wife Again # 3
M:4/4
L:1/8
Q:120
S:ABC TUNE FINDER
R:STRATHSPEY
B:Kerr's Merry Melodies Bk.1 (c.1870s)
Z:Nigel Gatherer
K:D
|:"A7" ^c | "D" d>BA>F "/A" A<AA>B | "D" d>BA>F "A" E<EE>c | "D" d>BA>F"/F#"A<gf>e |"G" d>B "A" A>F "D"D<D D^c |!
| "D" d>BA>F "A" A<AA>B | "D" d>BA>F "A" E<EE>c | "D" d>B "Em" A>F "D/F#" A<gf>e | "G" d>B "A" A>F "D"D<D D  |!
g | "D" f<df<a "A" e<gf>e |"D"  f<df<a "G" B<BB>g | "D" f<df<a "Em"e<g"D/F#"f>e | "G" d>B "A" A>F "D" D<D D>g |!
"D" f<df<a "A/C#" e<gf>e | "Bm" f<df<a "G" B<B"A" B>c | "D/F#" d/e/f/g/a>f "Em"  e<gf>e |1"G"  d>B "A" A>F "D"D3 :|]2"G"  d>B "A" A>F "D"D3:|]
